X:121
T: Maria, die Mutter, wollt' wandern gehn,
N: D0178
O: Europa, Mitteleuropa, Deutschland, Untermainfranken, Spessart
R: Legenden - Lied
M: 2/4
L: 1/8
K: G
B, | DD2B, | EEEF | DEDC | B,2z
C | D3B, | E2EF | D2C2 | B,4
DGGB | A2A2 | B2cB | A4
B3A | G2GB | A2F2 | G2z

